studios/m6/thumb.svg

<svg xmlns="http://www.w3.org/2000/svg" xmlns:xlink="http://www.w3.org/1999/xlink" xml:space="preserve" width="1000" height="562" viewBox="0 0 264.583 148.696"><defs><radialGradient xlink:href="#a" id="b" cx="26.375" cy="97.114" r="132.292" fx="26.375" fy="97.114" gradientTransform="matrix(0 1.15153 -2.00992 0 221.566 -12.968)" gradientUnits="userSpaceOnUse"/><linearGradient id="a"><stop offset="0" style="stop-color:#282828;stop-opacity:1"/><stop offset="1" style="stop-color:#191919;stop-opacity:1"/></linearGradient></defs><path d="M0 0h264.583v148.696H0z" style="opacity:.98;fill:url(#b);fill-opacity:1;stroke-width:1.61952"/><path d="M381.67 572.5 218.09 408.93 190.83 572.5H0L95.42 0l286.25 286.25L667.92 0l95.41 572.5H572.5l-27.26-163.57z" style="fill:#d2d2d2" transform="translate(61.736 21.431)scale(.18486)"/><path d="M388.19 114.56C415.08 68.38 442 25.53 460.13.07H340.32c-49.95 70.15-109.6 171-126.1 242.13a172.7 172.7 0 0 0-5.84 44.42c0 95 77.94 172.31 173.71 172.31s173.73-77.29 173.73-172.31c0-92.07-75.01-168.82-167.63-172.06m69.18 172.06a75.57 75.57 0 1 1-75.56-75.35 75.53 75.53 0 0 1 75.56 75.35" style="fill:#e61e1e" transform="translate(61.736 21.431)scale(.18486)"/><path d="M40 25a15 16 0 0 0-15 16v480a15 16 0 0 0 15 16h920a15 16 0 0 0 15-16V41a15 16 0 0 0-15-16zm12.5 12.5h895a15 16 0 0 1 15 16v455a15 16 0 0 1-15 16h-895a15 16 0 0 1-15-16v-455a15 16 0 0 1 15-16" style="opacity:.98;fill:#e61e1e;fill-opacity:1;stroke-width:85.9894" transform="scale(.26458)"/></svg>

<?xml version="1.0" encoding="UTF-8" standalone="no"?>
<svg
   width="1000"
   height="562"
   viewBox="0 0 264.58333 148.69584"
   version="1.1"
   id="svg8"
   inkscape:version="1.2 (dc2aedaf03, 2022-05-15)"
   sodipodi:docname="thumb.svg"
   xml:space="preserve"
   xmlns:inkscape="http://www.inkscape.org/namespaces/inkscape"
   xmlns:sodipodi="http://sodipodi.sourceforge.net/DTD/sodipodi-0.dtd"
   xmlns:xlink="http://www.w3.org/1999/xlink"
   xmlns="http://www.w3.org/2000/svg"
   xmlns:svg="http://www.w3.org/2000/svg"
   xmlns:rdf="http://www.w3.org/1999/02/22-rdf-syntax-ns#"
   xmlns:cc="http://creativecommons.org/ns#"
   xmlns:dc="http://purl.org/dc/elements/1.1/"><defs
     id="defs2"><inkscape:path-effect
       effect="fillet_chamfer"
       id="path-effect2883"
       is_visible="true"
       lpeversion="1"
       satellites_param="F,0,0,1,0,5.2916667,0,1 @ F,0,0,1,0,5.2916667,0,1 @ F,0,0,1,0,5.2916667,0,1 @ F,0,0,1,0,5.2916667,0,1"
       unit="px"
       method="auto"
       mode="F"
       radius="20"
       chamfer_steps="1"
       flexible="false"
       use_knot_distance="true"
       apply_no_radius="true"
       apply_with_radius="true"
       only_selected="false"
       hide_knots="false"
       nodesatellites_param="F,0,0,1,0,5.2916667,0,1 @ F,0,0,1,0,5.2916667,0,1 @ F,0,0,1,0,5.2916667,0,1 @ F,0,0,1,0,5.2916667,0,1" /><inkscape:path-effect
       effect="fillet_chamfer"
       id="path-effect2864"
       is_visible="true"
       lpeversion="1"
       satellites_param="F,0,0,1,0,5.2916667,0,1 @ F,0,0,1,0,5.2916667,0,1 @ F,0,0,1,0,5.2916667,0,1 @ F,0,0,1,0,5.2916667,0,1"
       unit="px"
       method="auto"
       mode="F"
       radius="20"
       chamfer_steps="1"
       flexible="false"
       use_knot_distance="true"
       apply_no_radius="true"
       apply_with_radius="true"
       only_selected="false"
       hide_knots="false"
       nodesatellites_param="F,0,0,1,0,5.2916667,0,1 @ F,0,0,1,0,5.2916667,0,1 @ F,0,0,1,0,5.2916667,0,1 @ F,0,0,1,0,5.2916667,0,1" /><inkscape:path-effect
       effect="fillet_chamfer"
       id="path-effect2862"
       is_visible="true"
       lpeversion="1"
       satellites_param="F,0,0,1,0,0,0,1 @ F,0,0,1,0,0,0,1 @ F,0,0,1,0,0,0,1 @ F,0,0,1,0,0,0,1"
       unit="px"
       method="auto"
       mode="F"
       radius="0"
       chamfer_steps="1"
       flexible="false"
       use_knot_distance="true"
       apply_no_radius="true"
       apply_with_radius="true"
       only_selected="false"
       hide_knots="false"
       nodesatellites_param="F,0,0,1,0,0,0,1 @ F,0,0,1,0,0,0,1 @ F,0,0,1,0,0,0,1 @ F,0,0,1,0,0,0,1" /><inkscape:path-effect
       effect="fillet_chamfer"
       id="path-effect1088"
       is_visible="true"
       lpeversion="1"
       satellites_param="F,0,0,1,0,5.2916667,0,1 @ F,0,0,1,0,5.2916667,0,1 @ F,0,0,1,0,5.2916667,0,1 @ F,0,0,1,0,5.2916667,0,1"
       unit="px"
       method="auto"
       mode="F"
       radius="20"
       chamfer_steps="1"
       flexible="false"
       use_knot_distance="true"
       apply_no_radius="true"
       apply_with_radius="true"
       only_selected="false"
       hide_knots="false"
       nodesatellites_param="F,0,0,1,0,5.2916667,0,1 @ F,0,0,1,0,5.2916667,0,1 @ F,0,0,1,0,5.2916667,0,1 @ F,0,0,1,0,5.2916667,0,1" /><inkscape:path-effect
       effect="fillet_chamfer"
       id="path-effect1308"
       is_visible="true"
       lpeversion="1"
       satellites_param="F,1,0,1,0,0.04,0,1 @ F,1,0,1,0,0.04,0,1 @ F,1,0,1,0,0.04,0,1 @ F,1,0,1,0,0.04,0,1"
       unit="px"
       method="auto"
       mode="F"
       radius="4"
       chamfer_steps="1"
       flexible="true"
       use_knot_distance="true"
       apply_no_radius="true"
       apply_with_radius="true"
       only_selected="false"
       hide_knots="false"
       nodesatellites_param="F,1,0,1,0,0.04,0,1 @ F,1,0,1,0,0.04,0,1 @ F,1,0,1,0,0.04,0,1 @ F,1,0,1,0,0.04,0,1" /><inkscape:path-effect
       effect="fillet_chamfer"
       id="path-effect1306"
       is_visible="true"
       lpeversion="1"
       satellites_param="F,1,0,1,0,0.03,0,1 @ F,1,0,1,0,0.03,0,1 @ F,1,0,1,0,0.03,0,1 @ F,1,0,1,0,0.03,0,1"
       unit="px"
       method="auto"
       mode="F"
       radius="3"
       chamfer_steps="1"
       flexible="true"
       use_knot_distance="true"
       apply_no_radius="true"
       apply_with_radius="true"
       only_selected="false"
       hide_knots="false"
       nodesatellites_param="F,1,0,1,0,0.03,0,1 @ F,1,0,1,0,0.03,0,1 @ F,1,0,1,0,0.03,0,1 @ F,1,0,1,0,0.03,0,1" /><inkscape:path-effect
       effect="fillet_chamfer"
       id="path-effect1210"
       is_visible="true"
       lpeversion="1"
       satellites_param="F,1,0,1,0,0.02,0,1 @ F,1,0,1,0,0.02,0,1 @ F,1,0,1,0,0.02,0,1 @ F,1,0,1,0,0.02,0,1"
       unit="px"
       method="auto"
       mode="F"
       radius="2"
       chamfer_steps="1"
       flexible="true"
       use_knot_distance="true"
       apply_no_radius="true"
       apply_with_radius="true"
       only_selected="false"
       hide_knots="false"
       nodesatellites_param="F,1,0,1,0,0.02,0,1 @ F,1,0,1,0,0.02,0,1 @ F,1,0,1,0,0.02,0,1 @ F,1,0,1,0,0.02,0,1" /><inkscape:path-effect
       effect="fillet_chamfer"
       id="path-effect1191"
       is_visible="true"
       lpeversion="1"
       satellites_param="F,1,0,1,0,0.03,0,1 @ F,1,0,1,0,0.03,0,1 @ F,1,0,1,0,0.03,0,1 @ F,1,0,1,0,0.03,0,1"
       unit="px"
       method="auto"
       mode="F"
       radius="3"
       chamfer_steps="1"
       flexible="true"
       use_knot_distance="true"
       apply_no_radius="true"
       apply_with_radius="true"
       only_selected="false"
       hide_knots="false"
       nodesatellites_param="F,1,0,1,0,0.03,0,1 @ F,1,0,1,0,0.03,0,1 @ F,1,0,1,0,0.03,0,1 @ F,1,0,1,0,0.03,0,1" /><linearGradient
       inkscape:collect="always"
       id="linearGradient847"><stop
         style="stop-color:#282828;stop-opacity:1"
         offset="0"
         id="stop843" /><stop
         style="stop-color:#191919;stop-opacity:1"
         offset="1"
         id="stop845" /></linearGradient><radialGradient
       inkscape:collect="always"
       xlink:href="#linearGradient847"
       id="radialGradient849"
       cx="26.375103"
       cy="97.113945"
       fx="26.375103"
       fy="97.113945"
       r="132.29167"
       gradientTransform="matrix(0,1.1515333,-2.0099162,0,221.56598,-12.967733)"
       gradientUnits="userSpaceOnUse" /><style
       id="style1247">.cls-1{fill:#d2d2d2;}.cls-2{fill:#e61e1e;}</style></defs><sodipodi:namedview
     id="base"
     pagecolor="#757575"
     bordercolor="#666666"
     borderopacity="1.0"
     inkscape:pageopacity="1"
     inkscape:pageshadow="2"
     inkscape:zoom="0.70710678"
     inkscape:cx="324.56201"
     inkscape:cy="280.01429"
     inkscape:document-units="mm"
     inkscape:current-layer="layer1"
     inkscape:document-rotation="0"
     showgrid="false"
     units="px"
     inkscape:showpageshadow="false"
     inkscape:pagecheckerboard="false"
     inkscape:lockguides="true"
     inkscape:window-width="1920"
     inkscape:window-height="1017"
     inkscape:window-x="-8"
     inkscape:window-y="-8"
     inkscape:window-maximized="1"
     showguides="true"
     inkscape:guide-bbox="true"
     inkscape:deskcolor="#757575"><sodipodi:guide
       position="0,148.69584"
       orientation="0,1000"
       inkscape:locked="true"
       id="guide1270" /><sodipodi:guide
       position="264.58334,148.69584"
       orientation="562,0"
       inkscape:locked="true"
       id="guide1272" /><sodipodi:guide
       position="264.58334,0"
       orientation="0,-1000"
       inkscape:locked="true"
       id="guide1274" /><sodipodi:guide
       position="0,0"
       orientation="-562,0"
       inkscape:locked="true"
       id="guide1276" /><sodipodi:guide
       position="21.201605,127.26459"
       orientation="0,1"
       id="guide2557"
       inkscape:label=""
       inkscape:locked="true"
       inkscape:color="rgb(0,0,255)" /><sodipodi:guide
       position="-33.82728,21.43125"
       orientation="0,1"
       id="guide2559"
       inkscape:label=""
       inkscape:locked="true"
       inkscape:color="rgb(0,0,255)" /><sodipodi:guide
       position="39.687501,148.69584"
       orientation="-1,0"
       id="guide2561"
       inkscape:label=""
       inkscape:locked="true"
       inkscape:color="rgb(0,0,255)" /><sodipodi:guide
       position="224.89584,148.69584"
       orientation="-1,0"
       id="guide2563"
       inkscape:label=""
       inkscape:locked="true"
       inkscape:color="rgb(0,0,255)" /></sodipodi:namedview><metadata
     id="metadata5"><rdf:RDF><cc:Work
         rdf:about=""><dc:format>image/svg+xml</dc:format><dc:type
           rdf:resource="http://purl.org/dc/dcmitype/StillImage" /></cc:Work></rdf:RDF></metadata><g
     inkscape:label="Layer 1"
     inkscape:groupmode="layer"
     id="layer1"><rect
       style="opacity:0.98;fill:url(#radialGradient849);fill-opacity:1;stroke-width:1.61952"
       id="background"
       width="264.58334"
       height="148.69583"
       x="-5.0862632e-06"
       y="-4.7961635e-14" /><g
       id="logo"
       transform="matrix(0.74999998,0,0,0.79999997,33.07292,-84.402071)"><polygon
         class="cls-1"
         points="381.67,572.5 218.09,408.93 190.83,572.5 0,572.5 95.42,0 381.67,286.25 667.92,0 763.33,572.5 572.5,572.5 545.24,408.93 "
         id="polygon1251"
         transform="matrix(0.24648231,0,0,0.23107717,38.217997,132.29165)" /><path
         id="_6"
         class="cls-2"
         d="M 388.19,114.56 C 415.08,68.38 442,25.53 460.13,0.07 H 340.32 c -49.95,70.15 -109.6,171 -126.1,242.13 a 172.65,172.65 0 0 0 -5.84,44.42 c 0,95 77.94,172.31 173.71,172.31 95.77,0 173.73,-77.29 173.73,-172.31 0,-92.07 -75.01,-168.82 -167.63,-172.06 z m 69.18,172.06 a 75.57,75.57 0 1 1 -75.56,-75.35 75.53,75.53 0 0 1 75.56,75.35 z"
         transform="matrix(0.24648231,0,0,0.23107717,38.217997,132.29165)" /></g><path
       id="border"
       style="opacity:0.98;fill:#e61e1e;fill-opacity:1;stroke-width:85.9894"
       d="M 40 25 A 15 16 0 0 0 25 41 L 25 521 A 15 16 0 0 0 40 537 L 960 537 A 15 16 0 0 0 975 521 L 975 41 A 15 16 0 0 0 960 25 L 40 25 z M 52.5 37.5 L 947.5 37.5 A 15 16 0 0 1 962.5 53.5 L 962.5 508.5 A 15 16 0 0 1 947.5 524.5 L 52.5 524.5 A 15 16 0 0 1 37.5 508.5 L 37.5 53.5 A 15 16 0 0 1 52.5 37.5 z "
       transform="scale(0.26458333)" /></g></svg>
